X:149
T:Old French
S:Mathieu Gallant
Z:robin.beech@mcgill.ca
M:4/4
L:1/8
K:D
(3ABc | d2c2 B2AF |  DFAd f2ed | cdef gece | defd A2(3ABc |
d2c2 B2AF | DFAd f2ed | cdef gece | dfec d2 ::
cd | efed c2B2 | AEAc e2dc | BGBd gfed | cAce a2cd |
efed c2B2 | AEAc e2dc | BGBd gfed | cdBc A2 :|

